X: 1631
T: John Barleycorn
B: australian traditional tunes wiki
M:6/8
L:1/8
R: Jig
Q: 3/8=100
K:G
V:1 
d2c||"G"B2G "D7"ABc|"G"B2G "D7"ABc|"G"B2G "D7"A2F|"G"G3 "C"EFG|"D7"A2d "A7"^c2e|"D7"d2AA2d|"A7"^c2ec2A|"D7"d3d2e|
"G"d2BB2A|"G"A2GG2B|"Am"A2EA2B|"C"c3cBc|"D7"d2AB2c|"G"d2BG2D|"C"EFG"D7"A2B|"G"G3"D7"A3||
||"G"B2G "D7"ABc|"G"B2G "D7"ABc|"G"B2G "D7"B2c|"G"d3dBd|"C"edc "G"dcB|"D7"cBA "G"B2G|"D7"ABcB2A|"G"G3"D7"A3|
"G"B2G "D7"ABc|"G"B2G "D7"ABc|"G"B2G "D7"B2c|"G"d3dBd|"C"edc "G"dcB|"D7"cBA "G"B2G|"D7"ABcB2A|"G"G3G3||
% abcbook-tune_id 6342d53aebbe0729c595768e


% abcbook-boost 0
% abcbook-tablature 
% abcbook-transpose 
% abcbook-lastupdated 1665324375051
% abcbook-soundfonts 
% abcbook-repeats 1
% NFF Book 2013

